icons/cd.svg

<?xml version="1.0" ?>
<svg xmlns="http://www.w3.org/2000/svg" xmlns:ev="http://www.w3.org/2001/xml-events" xmlns:xlink="http://www.w3.org/1999/xlink" baseProfile="full" height="600px" version="1.1" viewBox="-1026.7104110377131 -1017.9243526579089 12291.536819715931 12271.920138557205" width="600px">
	<defs/>
	<path d="M 7089.0,10218.0 L 7043.0,10208.0 L 7025.0,10129.0 C 7007.0,10052.0 7006.0,10050.0 6977.0,10050.0 C 6961.0,10050.0 6934.0,10040.0 6917.0,10028.0 C 6900.0,10015.0 6852.0,9998.0 6810.0,9990.0 L 6735.0,9974.0 L 6637.0,10012.0 C 6583.0,10033.0 6533.0,10050.0 6526.0,10050.0 C 6518.0,10050.0 6507.0,10037.0 6501.0,10022.0 C 6492.0,10001.0 6475.0,9988.0 6432.0,9973.0 C 6401.0,9961.0 6290.0,9920.0 6185.0,9881.0 C 6081.0,9842.0 5989.0,9810.0 5981.0,9810.0 C 5973.0,9810.0 5957.0,9819.0 5946.0,9829.0 C 5934.0,9840.0 5881.0,9860.0 5828.0,9873.0 L 5730.0,9898.0 L 5680.0,9857.0 C 5649.0,9832.0 5627.0,9805.0 5622.0,9786.0 C 5615.0,9761.0 5608.0,9754.0 5582.0,9752.0 C 5553.0,9749.0 5550.0,9746.0 5550.0,9713.0 C 5550.0,9694.0 5543.0,9654.0 5534.0,9624.0 C 5520.0,9576.0 5515.0,9570.0 5486.0,9565.0 C 5449.0,9558.0 5376.0,9569.0 5202.0,9611.0 L 5079.0,9640.0 L 5040.0,9620.0 L 5002.0,9600.0 L 4946.0,9625.0 C 4910.0,9641.0 4871.0,9650.0 4839.0,9650.0 C 4802.0,9650.0 4772.0,9659.0 4717.0,9686.0 L 4645.0,9723.0 L 4580.0,9707.0 C 4519.0,9693.0 4514.0,9693.0 4479.0,9711.0 C 4458.0,9721.0 4439.0,9738.0 4437.0,9747.0 C 4434.0,9757.0 4429.0,9776.0 4426.0,9790.0 C 4417.0,9826.0 4379.0,9866.0 4344.0,9874.0 C 4291.0,9888.0 4146.0,9982.0 4095.0,10036.0 L 4045.0,10089.0 L 3990.0,10080.0 C 3960.0,10074.0 3865.0,10044.0 3780.0,10011.0 L 3625.0,9952.0 L 3607.0,9900.0 C 3597.0,9870.0 3575.0,9835.0 3556.0,9817.0 C 3530.0,9792.0 3521.0,9774.0 3516.0,9734.0 C 3509.0,9684.0 3507.0,9682.0 3459.0,9659.0 C 3432.0,9647.0 3405.0,9631.0 3400.0,9625.0 C 3394.0,9617.0 3393.0,9549.0 3398.0,9439.0 C 3407.0,9270.0 3408.0,9264.0 3437.0,9214.0 L 3468.0,9163.0 L 3449.0,9069.0 C 3423.0,8943.0 3391.0,8864.0 3315.0,8745.0 C 3241.0,8628.0 3150.0,8427.0 3150.0,8379.0 C 3150.0,8360.0 3160.0,8302.0 3171.0,8248.0 L 3193.0,8152.0 L 3155.0,8101.0 C 3125.0,8059.0 3116.0,8037.0 3110.0,7983.0 C 3105.0,7946.0 3097.0,7914.0 3092.0,7912.0 C 3066.0,7904.0 3046.0,7879.0 3029.0,7835.0 C 3011.0,7788.0 3011.0,7787.0 3031.0,7758.0 C 3048.0,7735.0 3050.0,7721.0 3045.0,7677.0 C 3039.0,7630.0 3041.0,7623.0 3063.0,7602.0 C 3087.0,7579.0 3087.0,7579.0 3072.0,7515.0 C 3059.0,7461.0 3052.0,7449.0 3030.0,7441.0 C 3007.0,7434.0 2998.0,7415.0 2962.0,7313.0 L 2920.0,7195.0 L 2942.0,7133.0 L 2965.0,7071.0 L 2933.0,7006.0 C 2904.0,6947.0 2898.0,6941.0 2863.0,6935.0 C 2808.0,6926.0 2799.0,6918.0 2793.0,6870.0 L 2787.0,6827.0 L 2685.0,6779.0 C 2539.0,6710.0 2483.0,6648.0 2385.0,6445.0 L 2312.0,6295.0 L 2227.0,6227.0 L 2142.0,6160.0 L 2134.0,6062.0 C 2130.0,6009.0 2130.0,5862.0 2134.0,5737.0 L 2140.0,5508.0 L 2093.0,5442.0 C 2067.0,5405.0 2030.0,5332.0 2010.0,5280.0 L 1974.0,5185.0 L 1920.0,5177.0 C 1890.0,5173.0 1842.0,5159.0 1813.0,5146.0 C 1770.0,5126.0 1759.0,5116.0 1752.0,5088.0 C 1744.0,5057.0 1741.0,5055.0 1697.0,5052.0 C 1653.0,5049.0 1647.0,5045.0 1623.0,5007.0 C 1609.0,4984.0 1560.0,4925.0 1515.0,4875.0 C 1470.0,4826.0 1415.0,4757.0 1392.0,4723.0 L 1351.0,4662.0 L 1283.0,4677.0 C 1195.0,4696.0 1156.0,4734.0 1145.0,4807.0 C 1140.0,4848.0 1142.0,4866.0 1160.0,4900.0 L 1181.0,4941.0 L 1155.0,4986.0 C 1141.0,5010.0 1126.0,5030.0 1122.0,5030.0 C 1118.0,5030.0 1073.0,5003.0 1021.0,4971.0 C 927.0,4912.0 926.0,4912.0 886.0,4924.0 C 814.0,4946.0 798.0,4935.0 777.0,4849.0 L 759.0,4774.0 L 684.0,4752.0 L 610.0,4730.0 L 540.0,4765.0 C 502.0,4784.0 464.0,4800.0 457.0,4800.0 C 449.0,4800.0 401.0,4778.0 349.0,4750.0 C 285.0,4717.0 236.0,4682.0 196.0,4642.0 L 138.0,4582.0 L 139.0,4386.0 L 141.0,4190.0 L 93.0,4190.0 C 67.0,4190.0 35.0,4187.0 22.0,4184.0 C 0.0,4178.0 -1.0,4174.0 5.0,4126.0 C 9.0,4098.0 14.0,4072.0 16.0,4069.0 C 24.0,4055.0 121.0,4078.0 143.0,4098.0 C 157.0,4111.0 179.0,4120.0 198.0,4120.0 C 218.0,4120.0 233.0,4126.0 236.0,4135.0 C 240.0,4143.0 254.0,4150.0 269.0,4150.0 C 283.0,4150.0 317.0,4157.0 344.0,4165.0 C 386.0,4178.0 521.0,4180.0 1260.0,4180.0 L 2127.0,4180.0 L 2149.0,4156.0 L 2172.0,4131.0 L 2200.0,4152.0 C 2222.0,4168.0 2236.0,4171.0 2262.0,4166.0 C 2291.0,4160.0 2299.0,4151.0 2333.0,4081.0 C 2369.0,4007.0 2370.0,4000.0 2364.0,3934.0 C 2355.0,3840.0 2397.0,3680.0 2439.0,3644.0 C 2473.0,3616.0 2494.0,3551.0 2485.0,3501.0 C 2479.0,3467.0 2483.0,3458.0 2523.0,3409.0 C 2547.0,3379.0 2572.0,3340.0 2578.0,3322.0 C 2591.0,3285.0 2646.0,3204.0 2695.0,3150.0 C 2716.0,3128.0 2735.0,3090.0 2748.0,3045.0 C 2775.0,2954.0 2791.0,2944.0 2874.0,2961.0 C 2918.0,2969.0 2955.0,2970.0 3003.0,2963.0 C 3040.0,2958.0 3072.0,2956.0 3075.0,2958.0 C 3078.0,2961.0 3080.0,2981.0 3080.0,3002.0 C 3080.0,3035.0 3083.0,3040.0 3103.0,3040.0 C 3115.0,3040.0 3141.0,3035.0 3160.0,3029.0 C 3181.0,3023.0 3232.0,3022.0 3288.0,3025.0 C 3368.0,3031.0 3380.0,3034.0 3376.0,3048.0 C 3374.0,3058.0 3369.0,3080.0 3365.0,3097.0 L 3358.0,3130.0 L 3412.0,3130.0 L 3466.0,3130.0 L 3489.0,3084.0 L 3511.0,3037.0 L 3628.0,3044.0 C 3692.0,3048.0 3769.0,3053.0 3799.0,3057.0 L 3852.0,3063.0 L 3847.0,3139.0 C 3845.0,3181.0 3839.0,3223.0 3835.0,3232.0 C 3830.0,3245.0 3837.0,3251.0 3870.0,3261.0 L 3911.0,3274.0 L 3905.0,3369.0 C 3901.0,3436.0 3903.0,3480.0 3913.0,3515.0 L 3926.0,3565.0 L 4096.0,3562.0 C 4189.0,3560.0 4277.0,3556.0 4292.0,3554.0 C 4315.0,3549.0 4320.0,3553.0 4326.0,3574.0 C 4332.0,3599.0 4335.0,3600.0 4407.0,3600.0 L 4482.0,3600.0 L 4476.0,3553.0 C 4473.0,3526.0 4469.0,3483.0 4468.0,3455.0 L 4466.0,3405.0 L 4705.0,3408.0 C 4837.0,3409.0 4979.0,3413.0 5022.0,3416.0 L 5098.0,3422.0 L 5111.0,3366.0 C 5121.0,3318.0 5121.0,3298.0 5105.0,3226.0 L 5088.0,3142.0 L 5114.0,3063.0 C 5128.0,3020.0 5149.0,2938.0 5160.0,2881.0 C 5178.0,2784.0 5178.0,2770.0 5165.0,2676.0 C 5158.0,2620.0 5148.0,2535.0 5145.0,2485.0 C 5141.0,2436.0 5132.0,2367.0 5124.0,2333.0 L 5110.0,2272.0 L 5146.0,2179.0 C 5185.0,2074.0 5194.0,2063.0 5260.0,2020.0 L 5306.0,1990.0 L 5338.0,1848.0 C 5358.0,1759.0 5370.0,1678.0 5370.0,1634.0 L 5370.0,1564.0 L 5335.0,1547.0 C 5299.0,1530.0 5299.0,1530.0 5306.0,1477.0 C 5309.0,1449.0 5322.0,1394.0 5333.0,1356.0 L 5355.0,1288.0 L 5405.0,1294.0 C 5453.0,1299.0 5468.0,1309.0 5495.0,1355.0 C 5505.0,1372.0 5508.0,1371.0 5548.0,1351.0 L 5590.0,1329.0 L 5623.0,1354.0 C 5653.0,1377.0 5662.0,1378.0 5730.0,1373.0 C 5805.0,1368.0 5805.0,1368.0 5846.0,1404.0 L 5888.0,1440.0 L 6051.0,1431.0 C 6210.0,1422.0 6216.0,1423.0 6267.0,1446.0 L 6320.0,1469.0 L 6335.0,1439.0 C 6348.0,1414.0 6356.0,1410.0 6393.0,1410.0 C 6452.0,1409.0 6498.0,1367.0 6507.0,1304.0 C 6513.0,1262.0 6511.0,1256.0 6475.0,1220.0 L 6438.0,1182.0 L 6476.0,1176.0 C 6569.0,1162.0 6587.0,1165.0 6632.0,1197.0 C 6660.0,1216.0 6723.0,1242.0 6809.0,1268.0 C 6937.0,1307.0 6944.0,1308.0 6967.0,1292.0 C 6990.0,1276.0 6991.0,1272.0 6985.0,1179.0 L 6979.0,1083.0 L 7008.0,1058.0 C 7024.0,1045.0 7043.0,1024.0 7049.0,1012.0 C 7059.0,994.0 7064.0,992.0 7091.0,1002.0 C 7116.0,1011.0 7136.0,1007.0 7226.0,975.0 C 7317.0,942.0 7331.0,935.0 7336.0,911.0 C 7347.0,859.0 7349.0,858.0 7383.0,864.0 C 7490.0,883.0 7546.0,881.0 7653.0,856.0 L 7761.0,830.0 L 7805.0,855.0 C 7856.0,885.0 7859.0,891.0 7867.0,986.0 L 7873.0,1058.0 L 7909.0,1053.0 C 7966.0,1045.0 7967.0,1044.0 7975.0,985.0 C 7981.0,934.0 7984.0,928.0 8016.0,913.0 C 8043.0,900.0 8053.0,887.0 8061.0,856.0 C 8067.0,833.0 8089.0,785.0 8111.0,748.0 L 8151.0,680.0 L 8218.0,680.0 C 8274.0,680.0 8287.0,677.0 8298.0,660.0 C 8304.0,649.0 8333.0,629.0 8362.0,614.0 C 8415.0,587.0 8450.0,586.0 8566.0,606.0 C 8595.0,611.0 8597.0,610.0 8608.0,560.0 C 8615.0,532.0 8620.0,490.0 8620.0,468.0 C 8620.0,427.0 8661.0,340.0 8680.0,340.0 C 8685.0,340.0 8700.0,344.0 8714.0,350.0 C 8737.0,358.0 8742.0,355.0 8768.0,317.0 C 8784.0,294.0 8801.0,264.0 8805.0,250.0 C 8809.0,236.0 8832.0,183.0 8857.0,132.0 C 8901.0,41.0 8903.0,39.0 8931.0,45.0 C 8954.0,50.0 8964.0,47.0 8978.0,30.0 L 8995.0,9.0 L 9093.0,70.0 C 9182.0,125.0 9194.0,130.0 9231.0,124.0 C 9261.0,119.0 9270.0,113.0 9266.0,103.0 C 9249.0,60.0 9250.0,43.0 9268.0,27.0 C 9284.0,12.0 9292.0,11.0 9313.0,21.0 C 9327.0,27.0 9341.0,42.0 9344.0,54.0 C 9347.0,65.0 9350.0,214.0 9350.0,384.0 L 9350.0,693.0 L 9308.0,686.0 C 9284.0,682.0 9244.0,673.0 9218.0,664.0 C 9172.0,649.0 9172.0,649.0 9181.0,617.0 C 9197.0,562.0 9195.0,560.0 9128.0,581.0 C 9093.0,591.0 9045.0,600.0 9020.0,600.0 C 8976.0,600.0 8973.0,602.0 8870.0,708.0 C 8812.0,768.0 8738.0,836.0 8704.0,858.0 L 8644.0,900.0 L 8621.0,995.0 L 8598.0,1089.0 L 8628.0,1167.0 C 8644.0,1210.0 8670.0,1300.0 8685.0,1367.0 C 8709.0,1471.0 8716.0,1490.0 8736.0,1499.0 C 8766.0,1512.0 8766.0,1524.0 8740.0,1690.0 C 8720.0,1818.0 8720.0,1820.0 8739.0,1919.0 L 8759.0,2020.0 L 8689.0,2166.0 C 8651.0,2246.0 8620.0,2315.0 8620.0,2319.0 C 8620.0,2324.0 8660.0,2354.0 8708.0,2386.0 C 8779.0,2432.0 8809.0,2460.0 8858.0,2525.0 L 8920.0,2606.0 L 8911.0,2676.0 C 8906.0,2714.0 8903.0,2746.0 8904.0,2746.0 C 8904.0,2747.0 9126.0,2778.0 9395.0,2816.0 C 9665.0,2853.0 9886.0,2884.0 9888.0,2886.0 C 9890.0,2887.0 9850.0,3010.0 9800.0,3159.0 C 9713.0,3414.0 9704.0,3434.0 9648.0,3512.0 C 9600.0,3577.0 9570.0,3607.0 9506.0,3650.0 L 9426.0,3705.0 L 9358.0,3862.0 L 9291.0,4019.0 L 9310.0,4085.0 C 9327.0,4144.0 9327.0,4155.0 9315.0,4191.0 C 9307.0,4213.0 9293.0,4290.0 9285.0,4361.0 C 9271.0,4473.0 9263.0,4503.0 9224.0,4590.0 C 9185.0,4680.0 9180.0,4698.0 9180.0,4767.0 C 9180.0,4819.0 9187.0,4861.0 9201.0,4900.0 L 9222.0,4957.0 L 9176.0,5126.0 C 9131.0,5292.0 9130.0,5298.0 9124.0,5499.0 L 9117.0,5703.0 L 9043.0,5784.0 C 8996.0,5835.0 8954.0,5894.0 8929.0,5944.0 C 8907.0,5987.0 8890.0,6023.0 8892.0,6024.0 C 8894.0,6026.0 8911.0,6036.0 8932.0,6048.0 C 8952.0,6061.0 8993.0,6101.0 9024.0,6139.0 L 9080.0,6207.0 L 9080.0,6280.0 L 9080.0,6352.0 L 9147.0,6434.0 C 9184.0,6478.0 9241.0,6545.0 9272.0,6581.0 L 9330.0,6647.0 L 9314.0,6686.0 C 9303.0,6712.0 9300.0,6739.0 9304.0,6770.0 C 9307.0,6795.0 9315.0,6874.0 9320.0,6945.0 C 9325.0,7017.0 9339.0,7152.0 9352.0,7247.0 L 9374.0,7418.0 L 9409.0,7433.0 C 9443.0,7446.0 9447.0,7453.0 9478.0,7547.0 C 9507.0,7634.0 9511.0,7657.0 9508.0,7728.0 L 9505.0,7810.0 L 9547.0,7810.0 L 9588.0,7810.0 L 9614.0,7878.0 C 9640.0,7945.0 9641.0,7947.0 9693.0,7965.0 C 9759.0,7988.0 9785.0,8006.0 9889.0,8099.0 C 10095.0,8284.0 10158.0,8350.0 10201.0,8427.0 C 10255.0,8527.0 10250.0,8551.0 10165.0,8597.0 C 10114.0,8625.0 10095.0,8629.0 10034.0,8630.0 L 9963.0,8630.0 L 9958.0,8681.0 C 9954.0,8724.0 9959.0,8747.0 9987.0,8817.0 L 10021.0,8902.0 L 9993.0,8937.0 C 9978.0,8956.0 9961.0,8977.0 9956.0,8984.0 C 9951.0,8991.0 9966.0,9035.0 9994.0,9098.0 C 10019.0,9154.0 10040.0,9204.0 10040.0,9208.0 C 10040.0,9212.0 10019.0,9239.0 9994.0,9268.0 C 9969.0,9297.0 9932.0,9350.0 9912.0,9387.0 L 9875.0,9454.0 L 9829.0,9452.0 C 9788.0,9449.0 9781.0,9452.0 9765.0,9477.0 C 9755.0,9492.0 9719.0,9534.0 9685.0,9570.0 C 9648.0,9608.0 9603.0,9671.0 9576.0,9722.0 C 9550.0,9770.0 9521.0,9811.0 9512.0,9814.0 C 9503.0,9816.0 9457.0,9820.0 9410.0,9822.0 L 9326.0,9825.0 L 9297.0,9765.0 C 9281.0,9732.0 9267.0,9704.0 9266.0,9703.0 C 9265.0,9701.0 9209.0,9711.0 9142.0,9723.0 C 9039.0,9743.0 9018.0,9750.0 9001.0,9772.0 C 8973.0,9807.0 8934.0,9799.0 8912.0,9754.0 L 8896.0,9720.0 L 8816.0,9725.0 C 8771.0,9728.0 8697.0,9741.0 8651.0,9752.0 L 8567.0,9774.0 L 8546.0,9823.0 C 8527.0,9868.0 8517.0,9876.0 8420.0,9934.0 C 8362.0,9969.0 8242.0,10035.0 8153.0,10080.0 L 7992.0,10164.0 L 7930.0,10110.0 L 7869.0,10057.0 L 7829.0,10079.0 C 7794.0,10099.0 7780.0,10101.0 7721.0,10095.0 C 7660.0,10089.0 7641.0,10092.0 7538.0,10124.0 C 7451.0,10151.0 7406.0,10160.0 7351.0,10160.0 C 7286.0,10160.0 7274.0,10163.0 7224.0,10195.0 C 7166.0,10232.0 7161.0,10233.0 7089.0,10218.0" fill="pink"/>
</svg>

<?xml version="1.0" standalone="no"?>
<!DOCTYPE svg PUBLIC "-//W3C//DTD SVG 20010904//EN"
 "http://www.w3.org/TR/2001/REC-SVG-20010904/DTD/svg10.dtd">
<svg version="1.0" xmlns="http://www.w3.org/2000/svg"
 width="1024.000000pt" height="1024.000000pt" viewBox="0 0 1024.000000 1024.000000"
 preserveAspectRatio="xMidYMid meet">
<metadata>
Created by potrace 1.10, written by Peter Selinger 2001-2011
</metadata>
<g transform="translate(0.000000,1024.000000) scale(0.100000,-0.100000)"
fill="#000000" stroke="none">
<path d="M7089 10218 l-46 -10 -18 -79 c-18 -77 -19 -79 -48 -79 -16 0 -43
-10 -60 -22 -17 -13 -65 -30 -107 -38 l-75 -16 -98 38 c-54 21 -104 38 -111
38 -8 0 -19 -13 -25 -28 -9 -21 -26 -34 -69 -49 -31 -12 -142 -53 -247 -92
-104 -39 -196 -71 -204 -71 -8 0 -24 9 -35 19 -12 11 -65 31 -118 44 l-98 25
-50 -41 c-31 -25 -53 -52 -58 -71 -7 -25 -14 -32 -40 -34 -29 -3 -32 -6 -32
-39 0 -19 -7 -59 -16 -89 -14 -48 -19 -54 -48 -59 -37 -7 -110 4 -284 46
l-123 29 -39 -20 -38 -20 -56 25 c-36 16 -75 25 -107 25 -37 0 -67 9 -122 36
l-72 37 -65 -16 c-61 -14 -66 -14 -101 4 -21 10 -40 27 -42 36 -3 10 -8 29
-11 43 -9 36 -47 76 -82 84 -53 14 -198 108 -249 162 l-50 53 -55 -9 c-30 -6
-125 -36 -210 -69 l-155 -59 -18 -52 c-10 -30 -32 -65 -51 -83 -26 -25 -35
-43 -40 -83 -7 -50 -9 -52 -57 -75 -27 -12 -54 -28 -59 -34 -6 -8 -7 -76 -2
-186 9 -169 10 -175 39 -225 l31 -51 -19 -94 c-26 -126 -58 -205 -134 -324
-74 -117 -165 -318 -165 -366 0 -19 10 -77 21 -131 l22 -96 -38 -51 c-30 -42
-39 -64 -45 -118 -5 -37 -13 -69 -18 -71 -26 -8 -46 -33 -63 -77 -18 -47 -18
-48 2 -77 17 -23 19 -37 14 -81 -6 -47 -4 -54 18 -75 24 -23 24 -23 9 -87 -13
-54 -20 -66 -42 -74 -23 -7 -32 -26 -68 -128 l-42 -118 22 -62 23 -62 -32 -65
c-29 -59 -35 -65 -70 -71 -55 -9 -64 -17 -70 -65 l-6 -43 -102 -48 c-146 -69
-202 -131 -300 -334 l-73 -150 -85 -68 -85 -67 -8 -98 c-4 -53 -4 -200 0 -325
l6 -229 -47 -66 c-26 -37 -63 -110 -83 -162 l-36 -95 -54 -8 c-30 -4 -78 -18
-107 -31 -43 -20 -54 -30 -61 -58 -8 -31 -11 -33 -55 -36 -44 -3 -50 -7 -74
-45 -14 -23 -63 -82 -108 -132 -45 -49 -100 -118 -123 -152 l-41 -61 -68 15
c-88 19 -127 57 -138 130 -5 41 -3 59 15 93 l21 41 -26 45 c-14 24 -29 44 -33
44 -4 0 -49 -27 -101 -59 -94 -59 -95 -59 -135 -47 -72 22 -88 11 -109 -75
l-18 -75 -75 -22 -74 -22 -70 35 c-38 19 -76 35 -83 35 -8 0 -56 -22 -108 -50
-64 -33 -113 -68 -153 -108 l-58 -60 1 -196 2 -196 -48 0 c-26 0 -58 -3 -71
-6 -22 -6 -23 -10 -17 -58 4 -28 9 -54 11 -57 8 -14 105 9 127 29 14 13 36 22
55 22 20 0 35 6 38 15 4 8 18 15 33 15 14 0 48 7 75 15 42 13 177 15 916 15
l867 0 22 -24 23 -25 28 21 c22 16 36 19 62 14 29 -6 37 -15 71 -85 36 -74 37
-81 31 -147 -9 -94 33 -254 75 -290 34 -28 55 -93 46 -143 -6 -34 -2 -43 38
-92 24 -30 49 -69 55 -87 13 -37 68 -118 117 -172 21 -22 40 -60 53 -105 27
-91 43 -101 126 -84 44 8 81 9 129 2 37 -5 69 -7 72 -5 3 3 5 23 5 44 0 33 3
38 23 38 12 0 38 -5 57 -11 21 -6 72 -7 128 -4 80 6 92 9 88 23 -2 10 -7 32
-11 49 l-7 33 54 0 54 0 23 -46 22 -47 117 7 c64 4 141 9 171 13 l53 6 -5 76
c-2 42 -8 84 -12 93 -5 13 2 19 35 29 l41 13 -6 95 c-4 67 -2 111 8 146 l13
50 170 -3 c93 -2 181 -6 196 -8 23 -5 28 -1 34 20 6 25 9 26 81 26 l75 0 -6
-47 c-3 -27 -7 -70 -8 -98 l-2 -50 239 3 c132 1 274 5 317 8 l76 6 13 -56 c10
-48 10 -68 -6 -140 l-17 -84 26 -79 c14 -43 35 -125 46 -182 18 -97 18 -111 5
-205 -7 -56 -17 -141 -20 -191 -4 -49 -13 -118 -21 -152 l-14 -61 36 -93 c39
-105 48 -116 114 -159 l46 -30 32 -142 c20 -89 32 -170 32 -214 l0 -70 -35
-17 c-36 -17 -36 -17 -29 -70 3 -28 16 -83 27 -121 l22 -68 50 6 c48 5 63 15
90 61 10 17 13 16 53 -4 l42 -22 33 25 c30 23 39 24 107 19 75 -5 75 -5 116
31 l42 36 163 -9 c159 -9 165 -8 216 15 l53 23 15 -30 c13 -25 21 -29 58 -29
59 -1 105 -43 114 -106 6 -42 4 -48 -32 -84 l-37 -38 38 -6 c93 -14 111 -11
156 21 28 19 91 45 177 71 128 39 135 40 158 24 23 -16 24 -20 18 -113 l-6
-96 29 -25 c16 -13 35 -34 41 -46 10 -18 15 -20 42 -10 25 9 45 5 135 -27 91
-33 105 -40 110 -64 11 -52 13 -53 47 -47 107 19 163 17 270 -8 l108 -26 44
25 c51 30 54 36 62 131 l6 72 36 -5 c57 -8 58 -9 66 -68 6 -51 9 -57 41 -72
27 -13 37 -26 45 -57 6 -23 28 -71 50 -108 l40 -68 67 0 c56 0 69 -3 80 -20 6
-11 35 -31 64 -46 53 -27 88 -28 204 -8 29 5 31 4 42 -46 7 -28 12 -70 12 -92
0 -41 41 -128 60 -128 5 0 20 4 34 10 23 8 28 5 54 -33 16 -23 33 -53 37 -67
4 -14 27 -67 52 -118 44 -91 46 -93 74 -87 23 5 33 2 47 -15 l17 -21 98 61
c89 55 101 60 138 54 30 -5 39 -11 35 -21 -17 -43 -16 -60 2 -76 16 -15 24
-16 45 -6 14 6 28 21 31 33 3 11 6 160 6 330 l0 309 -42 -7 c-24 -4 -64 -13
-90 -22 -46 -15 -46 -15 -37 -47 16 -55 14 -57 -53 -36 -35 10 -83 19 -108 19
-44 0 -47 2 -150 108 -58 60 -132 128 -166 150 l-60 42 -23 95 -23 94 30 78
c16 43 42 133 57 200 24 104 31 123 51 132 30 13 30 25 4 191 -20 128 -20 130
-1 229 l20 101 -70 146 c-38 80 -69 149 -69 153 0 5 40 35 88 67 71 46 101 74
150 139 l62 81 -9 70 c-5 38 -8 70 -7 70 0 1 222 32 491 70 270 37 491 68 493
70 2 1 -38 124 -88 273 -87 255 -96 275 -152 353 -48 65 -78 95 -142 138 l-80
55 -68 157 -67 157 19 66 c17 59 17 70 5 106 -8 22 -22 99 -30 170 -14 112
-22 142 -61 229 -39 90 -44 108 -44 177 0 52 7 94 21 133 l21 57 -46 169 c-45
166 -46 172 -52 373 l-7 204 -74 81 c-47 51 -89 110 -114 160 -22 43 -39 79
-37 80 2 2 19 12 40 24 20 13 61 53 92 91 l56 68 0 73 0 72 67 82 c37 44 94
111 125 147 l58 66 -16 39 c-11 26 -14 53 -10 84 3 25 11 104 16 175 5 72 19
207 32 302 l22 171 35 15 c34 13 38 20 69 114 29 87 33 110 30 181 l-3 82 42
0 41 0 26 68 c26 67 27 69 79 87 66 23 92 41 196 134 206 185 269 251 312 328
54 100 49 124 -36 170 -51 28 -70 32 -131 33 l-71 0 -5 51 c-4 43 1 66 29 136
l34 85 -28 35 c-15 19 -32 40 -37 47 -5 7 10 51 38 114 25 56 46 106 46 110 0
4 -21 31 -46 60 -25 29 -62 82 -82 119 l-37 67 -46 -2 c-41 -3 -48 0 -64 25
-10 15 -46 57 -80 93 -37 38 -82 101 -109 152 -26 48 -55 89 -64 92 -9 2 -55
6 -102 8 l-84 3 -29 -60 c-16 -33 -30 -61 -31 -62 -1 -2 -57 8 -124 20 -103
20 -124 27 -141 49 -28 35 -67 27 -89 -18 l-16 -34 -80 5 c-45 3 -119 16 -165
27 l-84 22 -21 49 c-19 45 -29 53 -126 111 -58 35 -178 101 -267 146 l-161 84
-62 -54 -61 -53 -40 22 c-35 20 -49 22 -108 16 -61 -6 -80 -3 -183 29 -87 27
-132 36 -187 36 -65 0 -77 3 -127 35 -58 37 -63 38 -135 23z"/>
</g>
</svg>
